web/ui/src/assets/svgs/error/browser.svg

<svg height="242" viewBox="0 0 394 242" width="394" xmlns="http://www.w3.org/2000/svg" xmlns:xlink="http://www.w3.org/1999/xlink"><filter id="a" height="3000%" width="118.1%" x="-9%" y="-1450%"><feGaussianBlur in="SourceGraphic" stdDeviation="10 0"/></filter><g fill="none" fill-rule="evenodd" transform="translate(-3)"><path d="m29 73h332" filter="url(#a)" opacity=".101517"/><g fill-rule="nonzero"><g><path d="m18.7208445 216.431254c49.1191051 53.278409 228.0348905 10.252703 275.7095495-12.047905 83.037365-38.841598 40.838104 59.548297 83.551747 8.052581 31.635262-38.138592 3.691804-136.3939287-63.011137-181.9392656-58.087743-39.6627404-123.131401-39.22796084-199.810825-6.8693232-81.66618 34.463784-149.3007344 135.4672378-96.4393345 192.8039128z" fill="#deecfd" opacity=".20062156744"/><path d="m74 0h242v242h-242z" fill="#000" opacity="0"/><g fill="#e7f2ff"><path d="m190.081985 46.2539821c0 3.2695241-2.665792 5.9164065-5.944054 5.9164065h-23.78308c-1.576828.0010679-3.089485-.6217542-4.205133-1.7314251-1.114611-1.1100647-1.741375-2.6151896-1.742709-4.1849814 0-3.268581 2.663188-5.9206488 5.948079-5.9206488h23.78308c3.278025-.0002357 5.943817 2.6520678 5.943817 5.9206488zm32.369961 0c0 3.2695241-1.873867 5.9164052-4.186193 5.9164052h-16.730332c-2.31493 0-4.186193-2.6492387-4.186193-5.9164052 0-3.268581 1.871026-5.9206488 4.186193-5.9206488h16.730332c2.312326-.0002357 4.186193 2.6520678 4.186193 5.9206488zm36.333374 24.0110094c0 1.8327677-.730734 3.5905434-2.032353 4.8862848-1.301618 1.2957413-3.067014 2.0232007-4.907466 2.0222008h-68.703099c-3.830123 0-6.935558-3.0924691-6.935558-6.9082498 0-3.8138947 3.105672-6.9065993 6.935558-6.9065993h68.703336c1.840212-.0008934 3.605386.7263305 4.907093 2.0216455 1.301085 1.2954675 2.032489 3.0525202 2.032489 4.884718zm18.498372 24.6685449c0 3.634481-2.95794 6.5814846-6.608844 6.5814846h-103.716124c-3.649721 0-6.607661-2.945589-6.607661-6.5800701 0-3.6330664 2.958177-6.5798346 6.607661-6.5798346h103.713757c3.649483 0 6.608844 2.9444106 6.611211 6.5784201zm5.945475 23.3574816c0 1.832483-.730462 3.590023-2.031306 4.886133-1.300696 1.296271-3.065496 2.024484-4.905673 2.024238h-19.161979c-3.832727 0-6.938399-3.093883-6.938399-6.909192 0-3.815781 3.105435-6.909663 6.938399-6.909663h19.161979c1.839539 0 3.604028.728027 4.905673 2.022823 1.300398 1.296214 2.031306 3.053419 2.031306 4.885661zm-38.317803 0c0 3.817431-4.614472 6.910371-10.319647 6.910371h-132.633577c-5.6949936 0-10.3123067-3.089875-10.3123067-6.910371 0-3.816016 4.6170763-6.908484 10.3123067-6.908484h132.633577c5.705175.000235 10.319647 3.092703 10.319647 6.908484z"/><path d="m203.402443 147.394563c0 2.098558-.834461 4.111272-2.319859 5.596013-1.486213 1.483949-3.50199 2.317636-5.603861 2.317636h-113.5550314c-2.830346-.000305-5.4456408-1.507824-6.8611518-3.954935-1.4167197-2.447248-1.4167197-5.463565 0-7.910814 1.4148287-2.447976 4.0303953-3.956193 6.8611518-3.956352h113.5550314c2.101242-.000332 4.116535.832851 5.602442 2.316219 1.486423 1.482627 2.321278 3.494446 2.321278 5.592233zm101.673946 27.946519c-.00142 4.329121-3.51516 7.838056-7.851321 7.839474h-94.553244c-4.257137-.110792-7.649029-3.588545-7.649029-7.839474 0-4.251164 3.391892-7.728209 7.649029-7.839473h94.550878c4.335924.002363 7.851084 3.510589 7.853687 7.839473z"/><path d="m289.178486 201.667298c0 2.007308-.597234 3.932329-1.660449 5.35095-1.063647 1.416735-2.504681 2.211886-4.006797 2.210918h-105.537882c-3.126414 0-5.660858-3.385586-5.660858-7.561868s2.534444-7.563131 5.660858-7.563131h105.538118c3.129963 0 5.66701 3.384953 5.66701 7.563131zm21.779847 0c0 4.174386-2.533261 7.559971-5.659675 7.561867h-4.520216c-3.127834 0-5.662278-3.385585-5.662278-7.561867s2.534444-7.563131 5.662278-7.563131h4.51998c3.122865 0 5.659911 3.384953 5.659911 7.563131z"/></g></g><g transform="translate(100 32)"><path d="m0 0h190v190h-190z" fill="#000" opacity="0"/><g fill="#a2ceff" stroke="#9cd1f5"><path d="m156.686231 34.3761346c8.705884 8.7061583 4.102879 27.6577979-12.617976 52.009108-.989807 1.4931618-2.707758 2.3366339-4.494435 2.206658-1.786678-.1299759-.741315-2.5355267-1.504611-4.1562219-.763296-1.6206953-3.216654-2.2047183-2.178929-3.664982 14.207263-20.6928713 17.687765-35.4729643 13.78123-39.3796213-2.40801-2.4080864-10.408162-2.5414573-24.993298 5.0440147-14.386937 7.481739-30.8910718 20.1834683-46.4746053 35.763787s-28.2867159 32.0942339-35.7663674 46.4797709c-7.5852335 14.587447-7.4592761 22.580441-5.0457085 24.995937 3.8898634 3.889985 18.5713191.453831 39.1320254-13.61495 1.4617226-1.057795 1.5958382.854147 3.229154 1.620834s4.508224.267197 4.6284035 2.067545-.7466442 3.523977-2.2635635 4.500967c-16.1447853 11.051264-29.9130492 16.751019-39.8655425 16.751019-4.9697635 0-8.9874367-1.422623-11.8733448-4.308622-6.7942947-6.788951-5.6606773-19.440667 3.254519-36.589946 7.9371736-15.26171 21.2738479-32.6314225 37.5557046-48.9137909 16.2818566-16.2823685 33.6510225-29.6194621 48.9122535-37.5550328 17.146888-8.9191814 29.798205-10.0435724 36.585091-3.2564737zm-14.64936 56.6238654c2.74106 0 4.963129 2.2385763 4.963129 5s-2.222069 5-4.963129 5h-47.0737419c-2.7410605 0-4.9631291-2.2385763-4.9631291-5s2.2220686-5 4.9631291-5z"/><path d="m93.5009318 152c-29.5001481 0-53.5009318-24.000366-53.5009318-53.5 0-29.4996343 24.0007837-53.5 53.5009318-53.5 30.5008792 0 53.4990682 21.6355498 53.4990682 50.3338674 0 2.7561912-2.234373 4.9905256-4.990613 4.9905256-2.756239 0-4.990612-2.2343344-4.990612-4.9905256 0-23.0089693-18.708275-40.3584067-43.5178432-40.3584067-23.9970566 0-43.5197067 19.52231-43.5197067 43.5189487 0 23.9966386 19.5226501 43.5245396 43.5197067 43.5245396 12.1063392-.017709 23.6620032-5.060486 31.9078672-13.924275 1.880155-1.994161 5.016705-2.098957 7.025777-.234738 2.009071 1.864218 2.138787 4.999782.290558 7.023567-10.136057 10.896922-24.341788 17.095961-39.2242022 17.116497z"/></g></g></g></g></svg>

<?xml version="1.0" encoding="UTF-8"?>
<svg width="394px" height="242px" viewBox="0 0 394 242" version="1.1" xmlns="http://www.w3.org/2000/svg" xmlns:xlink="http://www.w3.org/1999/xlink">
    <title>bg_IE  </title>
    <defs>
        <filter x="-9.0%" y="-1450.0%" width="118.1%" height="3000.0%" filterUnits="objectBoundingBox" id="filter-1">
            <feGaussianBlur stdDeviation="10 0" in="SourceGraphic"></feGaussianBlur>
        </filter>
    </defs>
    <g id="页面-1" stroke="none" stroke-width="1" fill="none" fill-rule="evenodd">
        <g id="建木-访问版本界面" transform="translate(-768.000000, -260.000000)">
            <g id="bg_IE" transform="translate(765.000000, 260.000000)">
                <g id="编组-2备份" transform="translate(25.000000, 0.000000)"></g>
                <line x1="29" y1="73" x2="361" y2="73" id="直线-3" opacity="0.101517078" filter="url(#filter-1)"></line>
                <g id="编组-3备份" fill-rule="nonzero">
                    <g id="bg备份-2" opacity="0.367278343" fill="#DEECFD">
                        <path d="M18.7208445,216.431254 C67.8399496,269.709663 246.755735,226.683957 294.430394,204.383349 C377.467759,165.541751 335.268498,263.931646 377.982141,212.43593 C409.617403,174.297338 381.673945,76.0420013 314.971004,30.4966644 C256.883261,-9.166076 191.839603,-8.73129644 115.160179,23.6273412 C33.493999,58.0911252 -34.1405554,159.094579 18.7208445,216.431254 Z" id="Shape" opacity="0.546239099"></path>
                    </g>
                    <rect id="矩形" fill="#000000" opacity="0" x="74" y="0" width="242" height="242"></rect>
                    <path d="M190.081985,46.2539821 C190.081985,49.5235062 187.416193,52.1703886 184.137931,52.1703886 L160.354851,52.1703886 C158.778023,52.1714565 157.265366,51.5486344 156.149718,50.4389635 C155.035107,49.3288988 154.408343,47.8237739 154.407009,46.2539821 C154.407009,42.9854011 157.070197,40.3333333 160.355088,40.3333333 L184.138168,40.3333333 C187.416193,40.3330976 190.081985,42.9854011 190.081985,46.2539821 L190.081985,46.2539821 Z M222.451946,46.2539821 C222.451946,49.5235062 220.578079,52.1703873 218.265753,52.1703873 L201.535421,52.1703873 C199.220491,52.1703873 197.349228,49.5211486 197.349228,46.2539821 C197.349228,42.9854011 199.220254,40.3333333 201.535421,40.3333333 L218.265753,40.3333333 C220.578079,40.3330976 222.451946,42.9854011 222.451946,46.2539821 Z M258.78532,70.2649915 C258.78532,72.0977592 258.054586,73.8555349 256.752967,75.1512763 C255.451349,76.4470176 253.685953,77.174477 251.845501,77.1734771 L183.142402,77.1734771 C179.312279,77.1734771 176.206844,74.081008 176.206844,70.2652273 C176.206844,66.4513326 179.312516,63.358628 183.142402,63.358628 L251.845738,63.358628 C253.68595,63.3577346 255.451124,64.0849585 256.752831,65.3802735 C258.053916,66.675741 258.78532,68.4327937 258.78532,70.2649915 L258.78532,70.2649915 Z M277.283692,94.9335364 C277.283692,98.5680174 274.325752,101.515021 270.674848,101.515021 L166.958724,101.515021 C163.309003,101.515021 160.351063,98.569432 160.351063,94.9349509 C160.351063,91.3018845 163.30924,88.3551163 166.958724,88.3551163 L270.672481,88.3551163 C274.321964,88.3551163 277.281325,91.2995269 277.283692,94.9335364 Z M283.229167,118.291018 C283.229167,120.123501 282.498705,121.881041 281.197861,123.177151 C279.897165,124.473422 278.132365,125.201635 276.292188,125.201389 L257.130209,125.201389 C253.297482,125.201389 250.19181,122.107506 250.19181,118.292197 C250.19181,114.476416 253.297245,111.382534 257.130209,111.382534 L276.292188,111.382534 C278.131727,111.382534 279.896216,112.110561 281.197861,113.405357 C282.498259,114.701571 283.229167,116.458776 283.229167,118.291018 Z M244.911364,118.291018 C244.911364,122.108449 240.296892,125.201389 234.591717,125.201389 L101.95814,125.201389 C96.2631464,125.201389 91.6458333,122.111514 91.6458333,118.291018 C91.6458333,114.475002 96.2629096,111.382534 101.95814,111.382534 L234.591717,111.382534 C240.296892,111.382769 244.911364,114.475237 244.911364,118.291018 L244.911364,118.291018 Z" id="形状" fill="#E7F2FF"></path>
                    <path d="M203.402443,147.394563 C203.402443,149.493121 202.567982,151.505835 201.082584,152.990576 C199.596371,154.474525 197.580594,155.308212 195.478723,155.308212 L81.9236916,155.308212 C79.0933456,155.307907 76.4780508,153.800388 75.0625398,151.353277 C73.6458201,148.906029 73.6458201,145.889712 75.0625398,143.442463 C76.4773685,140.994487 79.0929351,139.48627 81.9236916,139.486111 L195.478723,139.486111 C197.579965,139.485779 199.595258,140.318962 201.081165,141.80233 C202.567588,143.284957 203.402443,145.296776 203.402443,147.394563 L203.402443,147.394563 Z M305.076389,175.341082 C305.074969,179.670203 301.561229,183.179138 297.225068,183.180556 L202.671824,183.180556 C198.414687,183.069764 195.022795,179.592011 195.022795,175.341082 C195.022795,171.089918 198.414687,167.612873 202.671824,167.501609 L297.222702,167.501609 C301.558626,167.503972 305.073786,171.012198 305.076389,175.341082 L305.076389,175.341082 Z" id="形状" fill="#E7F2FF"></path>
                    <path d="M289.178486,201.667298 C289.178486,203.674606 288.581252,205.599627 287.518037,207.018248 C286.45439,208.434983 285.013356,209.230134 283.51124,209.229166 L177.973358,209.229166 C174.846944,209.229166 172.3125,205.84358 172.3125,201.667298 C172.3125,197.491016 174.846944,194.104167 177.973358,194.104167 L283.511476,194.104167 C286.641439,194.104167 289.178486,197.48912 289.178486,201.667298 Z M310.958333,201.667298 C310.958333,205.841684 308.425072,209.227269 305.298658,209.229165 L300.778442,209.229165 C297.650608,209.229165 295.116164,205.84358 295.116164,201.667298 C295.116164,197.491016 297.650608,194.104167 300.778442,194.104167 L305.298422,194.104167 C308.421287,194.104167 310.958333,197.48912 310.958333,201.667298 Z" id="形状" fill="#E7F2FF"></path>
                </g>
                <g id="浏览器1" transform="translate(100.000000, 32.000000)" fill-rule="nonzero">
                    <rect id="矩形" fill="#000000" opacity="0" x="0" y="0" width="190" height="190"></rect>
                    <path d="M156.686231,34.3761346 C165.392115,43.0822929 160.78911,62.0339325 144.068255,86.3852426 C143.078448,87.8784044 141.360497,88.7218765 139.57382,88.5919006 C137.787142,88.4619247 138.832505,86.0563739 138.069209,84.4356787 C137.305913,82.8149834 134.852555,82.2309604 135.89028,80.7706967 C150.097543,60.0778254 153.578045,45.2977324 149.67151,41.3910754 C147.2635,38.982989 139.263348,38.8496181 124.678212,46.4350901 C110.291275,53.9168291 93.7871402,66.6185584 78.2036067,82.1988771 C62.6200732,97.7791958 49.9168908,114.293111 42.4372393,128.678648 C34.8520058,143.266095 34.9779632,151.259089 37.3915308,153.674585 C41.2813942,157.56457 55.9628499,154.128416 76.5235562,140.059635 C77.9852788,139.00184 78.1193944,140.913782 79.7527102,141.680469 C81.386026,142.447156 84.2609342,141.947666 84.3811137,143.748014 C84.5012932,145.548362 83.6344695,147.271991 82.1175502,148.248981 C65.9727649,159.300245 52.204501,165 42.2520077,165 C37.2822442,165 33.264571,163.577377 30.3786629,160.691378 C23.5843682,153.902427 24.7179856,141.250711 33.6331819,124.101432 C41.5703555,108.839722 54.9070298,91.4700095 71.1888865,75.1876411 C87.4707431,58.9052726 104.839909,45.568179 120.10114,37.6326083 C137.248028,28.7134269 149.899345,27.5890359 156.686231,34.3761346 Z M142.036871,91 C144.777931,91 147,93.2385763 147,96 C147,98.7614237 144.777931,101 142.036871,101 L94.9631291,101 C92.2220686,101 90,98.7614237 90,96 C90,93.2385763 92.2220686,91 94.9631291,91 L142.036871,91 Z" id="路径-2" stroke="#9CD1F5" fill="#A2CEFF"></path>
                    <path d="M93.5009318,152 C64.0007837,152 40,127.999634 40,98.5 C40,69.0003657 64.0007837,45 93.5009318,45 C124.001811,45 147,66.6355498 147,95.3338674 C147,98.0900586 144.765627,100.324393 142.009387,100.324393 C139.253148,100.324393 137.018775,98.0900586 137.018775,95.3338674 C137.018775,72.3248981 118.3105,54.9754607 93.5009318,54.9754607 C69.5038752,54.9754607 49.9812251,74.4977707 49.9812251,98.4944094 C49.9812251,122.491048 69.5038752,142.018949 93.5009318,142.018949 C105.607271,142.00124 117.162935,136.958463 125.408799,128.094674 C127.288954,126.100513 130.425504,125.995717 132.434576,127.859936 C134.443647,129.724154 134.573363,132.859718 132.725134,134.883503 C122.589077,145.780425 108.383346,151.979464 93.5009318,152 L93.5009318,152 Z" id="路径" stroke="#9CD1F5" fill="#A2CEFF"></path>
                </g>
            </g>
        </g>
    </g>
</svg>
